X:1
T:Title
%%score { ( 1 4 ) | ( 2 3 5 ) }
L:1/8
Q:1/4=100
M:4/4
K:Bb
V:1 treble nm="Grand Piano"
V:4 treble 
V:2 bass 
V:3 bass 
V:5 bass 
V:1
 [DB]2 [DA]2[K:bass] [F,DF]2 [F,D]2 | [_DG]4 [=DF]4 | z2 [CA]2 z4 | d4 B4 | f2 c2 [Dd]2 [FB]2 | %5
w: L.~C.~Jacoby * * *|||||
 [^Fd]2 [DA]2 B2 G2 | z2 [DB]2 z4 | [A,F]8 | [F,EF]3 F GAE-[Ec] | [Dd]4 [DB]4 | [=B,FG]3 G A=Bcd | %11
w: ||||||
 e2- [Fe]2 c2- [Ec]2 | [G_d]3 [Gd] [Gc]2 [GB]2 | [Ff]4 [DB]4 | [Ee]2 [EG]2 [Gd]2 [Gc]2 | %15
w: ||||
 B2 A2 G2 F2 | [DB]2 [DA]2[K:bass] [F,DF]2 [F,D]2 | z4 [=DF]4 | z2 [CA]2 z4 | d4 B4 | %20
w: |||||
 f2 c2 [Dd]2 [FB]2 | [^Fd]2 [DA]2 B2 G2 | F2 d2 c3 [DB] | [DB]8 |] %24
w: ||||
V:2
 [B,,F,]2 z z/ G/ B,,2 F,,2 | [B,,=E,]4 z2 B,2 | E,2 z z/ B,/ [F,A,E]2 F,,2 | z4 D4 | %4
 [A,,CF]2 [F,A,E]2 [B,,F,]2 [D,B,]2 | [D,A,]2 [^F,C]2 [B,D]2- [B,,B,D]2 | [C,A,]2 z z/ C/ C,2 C,2 | %7
 F,8 | A,,2 z [A,E] [F,E]-[F,CE] z A, | B,2 z2 [B,,F,]2 _A,,2 | %10
 G,,2 z[K:treble] [=B,F] [G,DF]2[K:bass] [=B,,G,]2 | G,2- [D,G,-]2 [E,G,-]2 [C,G,]2 | %12
 [=E,B,]3 [E,B,] [E,C]2 [E,_D]2 | [F,D]4 [G,B,]4 | [C,G,]2 [C,C]2 [E,=B,]2 [E,C]2 | C4 z4 | %16
 [B,,F,]2 z z/ G/ B,,2 F,,2 | [B,,=E,]4 z2 B,2 | E,2 z z/ B,/ [F,A,E]2 F,,2 | z4 D4 | %20
 [A,,CF]2 [F,A,E]2 [B,,F,]2 [D,B,]2 | z4 B,4 | [F,B,D]2 [F,B,F]2 [F,,A,E]3 [B,,F,] | [B,,F,]8 |] %24
V:3
 z2 [F,,F,]2 z4 | z4 B,,4 | z2 C,2 z4 | B,2 G,2 F,2 z2 | x8 | z4 G,2 z2 | z2 C,2 z4 | %7
 z2 C,2 A,,2 F,,2 | z2 C,2 .B,2 F,,2 | B,,4 z4 | z2 D,2[K:treble] z4[K:bass] | C,2 z2 z4 | x8 | %13
 x8 | x8 | [F,E]4- [F,A,E]4 | z2 [F,,F,]2 z4 | z4 B,,4 | z2 C,2 z4 | B,2 G,2 F,2 z2 | x8 | %21
 [D,A,]2 [^F,C]2 [G,D]2 [E,E]2 | x8 | x8 |] %24
V:4
 x4[K:bass] x4 | z4 F,2 z2 | [B,EG]2 E->[EB] c2 [A,EF]2 | D2 E2 z2 B,2 | x8 | x8 | %6
 [Fc]2 F->[FA] [B,=EG]2 [B,EA]2 | x8 | z4 z2 .[B,B]2 | z2 G,2 z2 B,2 | z4 z2 F2 | E2 z2 G2 z2 | %12
 x8 | x8 | x8 | x8 | x4[K:bass] x4 | [_DG]4 F,2 z2 | [B,EG]2 E->[EB] c2 [A,EF]2 | D2 E2 z2 B,2 | %20
 x8 | x8 | x8 | x8 |] %24
V:5
 x8 | x8 | x8 | B,,8 | x8 | x8 | x8 | x8 | x8 | x8 | x3[K:treble] x3[K:bass] x2 | x8 | x8 | x8 | %14
 x8 | x8 | x8 | x8 | x8 | B,,8 | x8 | x8 | x8 | x8 |] %24

